usr/share/icons/bigicons-papient-dark/symbolic/status/fcitx-handwriting-inactive.svg

<?xml version="1.0" encoding="UTF-8"?>
<svg xmlns="http://www.w3.org/2000/svg" xmlns:xlink="http://www.w3.org/1999/xlink" xmlns:cc="http://creativecommons.org/ns#" xmlns:dc="http://purl.org/dc/elements/1.1/" xmlns:rdf="http://www.w3.org/1999/02/22-rdf-syntax-ns#" xmlns:inkscape="http://www.inkscape.org/namespaces/inkscape" xmlns:sodipodi="http://sodipodi.sourceforge.net/DTD/sodipodi-0.dtd" width="22" height="22">
    <style type="text/css" id="current-color-scheme">
      .ColorScheme-Text {
        color:#dedede;
      }
      .ColorScheme-Background {
        color:#eff0f1;
      }
      .ColorScheme-Highlight {
        color:#3daee9;
      }
      .ColorScheme-ButtonText {
        color:#dedede;
      }
      </style>
    <g id="fcitx-handwriting-inactive" transform="translate(22,0) translate(-220,-110)">
    <path class="ColorScheme-Text" style="fill:currentColor;fill-opacity:1;stroke:none" d="M 235.13672 112.56836 L 231.86523 124.77539 L 232.93555 128.51367 L 235.73047 125.81055 L 239 113.60352 L 238.51758 113.47266 L 235.13672 112.56836 z M 235.84375 113.79102 L 237.77539 114.30859 L 237.51562 115.27734 L 235.58398 114.75781 L 235.84375 113.79102 z M 235.32617 115.72461 L 237.25781 116.24219 L 234.83594 125.28516 L 233.43945 126.63672 L 232.9043 124.76758 L 235.32617 115.72461 z M 224.32227 119.45117 C 224.12908 119.45542 223.91662 119.47481 223.67773 119.50781 A 0.50078273 0.50078273 0 0 0 223.79297 120.50195 A 0.50078273 0.50078273 0 0 0 223.81445 120.5 C 224.23319 120.4422 224.52454 120.444 224.68555 120.4707 C 224.84655 120.4974 224.84968 120.52812 224.83789 120.51172 C 224.82609 120.49532 224.84403 120.50272 224.83203 120.60352 C 224.82063 120.70461 224.77383 120.86783 224.70703 121.05469 C 224.57339 121.42841 224.35575 121.87805 224.29688 122.38086 C 224.26747 122.63227 224.28198 122.92038 224.42969 123.1875 C 224.57742 123.45462 224.84925 123.65478 225.16797 123.76172 C 225.3205 123.81282 225.38126 123.80234 225.47656 123.80664 C 225.57186 123.81064 225.67731 123.8125 225.79297 123.8125 C 226.02428 123.81257 226.29652 123.80941 226.55078 123.81641 C 226.58278 123.81729 226.59751 123.82222 226.62891 123.82422 C 226.53821 123.87962 226.48332 123.92242 226.37695 123.98242 C 225.84414 124.28309 225.15898 124.62677 224.5957 125.00391 C 224.31407 125.19247 224.05958 125.38667 223.85938 125.625 C 223.65917 125.86333 223.48995 126.2011 223.57227 126.57422 C 223.65457 126.94734 223.94235 127.20603 224.30273 127.40039 C 224.66312 127.59475 225.13618 127.75197 225.7832 127.89844 C 226.83439 128.1364 228.14352 128.06689 229.32617 128.11914 C 230.50883 128.17144 231.49456 128.37936 231.87891 128.82227 A 0.50005 0.50005 0 1 0 232.63281 128.16602 C 231.87673 127.29474 230.61694 127.17419 229.37109 127.11914 C 228.12525 127.06404 226.82125 127.10884 226.00391 126.92383 C 225.40819 126.78897 225.00455 126.64402 224.77734 126.52148 C 224.55013 126.39894 224.54155 126.32639 224.54883 126.35938 C 224.55583 126.39238 224.5303 126.38223 224.625 126.26953 C 224.7197 126.15679 224.91174 125.99703 225.15234 125.83594 C 225.63355 125.51375 226.30372 125.17258 226.86914 124.85352 C 227.15185 124.69398 227.40754 124.54128 227.62109 124.375 C 227.83465 124.20872 228.087 124.04488 228.09766 123.62305 C 228.10366 123.37711 227.93339 123.15262 227.79297 123.05859 C 227.65255 122.96459 227.52552 122.92803 227.39648 122.89844 C 227.1384 122.83924 226.86027 122.82421 226.57812 122.81641 C 226.296 122.80841 226.01555 122.8125 225.79492 122.8125 C 225.68461 122.81247 225.58855 122.81166 225.52344 122.80859 C 225.49592 122.80733 225.47379 122.80359 225.45898 122.80078 C 225.47099 122.8053 225.47205 122.80771 225.48633 122.8125 C 225.43594 122.79559 225.43876 122.79694 225.45898 122.80078 C 225.3447 122.75773 225.31651 122.72446 225.30469 122.70312 C 225.29159 122.67952 225.27446 122.62262 225.28906 122.49805 C 225.31826 122.24888 225.49456 121.82289 225.64844 121.39258 C 225.72534 121.17742 225.79696 120.95654 225.82422 120.71484 C 225.85152 120.47314 225.83022 120.17951 225.64844 119.92773 C 225.46689 119.67596 225.17008 119.53754 224.84961 119.48438 C 224.68937 119.45777 224.51546 119.44692 224.32227 119.45117 z " transform="translate(-22,0)" id="path4564"/>
    <rect style="fill:none;fill-opacity:1;stroke:none;stroke-linecap:round;stroke-linejoin:miter" id="rect4570" width="22" height="22" x="198" y="110.00002"/>
    <rect y="110.00002" x="198" height="22" width="22" id="rect4576" style="fill:none;fill-opacity:1;stroke:none;stroke-linecap:round;stroke-linejoin:miter"/>
  </g>
</svg>

<svg xmlns="http://www.w3.org/2000/svg" width="22" height="22">
<style id="current-color-scheme" type="text/css">
.ColorScheme-Text{color:#fcfcfc}
</style>
<g id="fcitx-handwriting-inactive" transform="translate(-198 -110)">
<path id="path4564" d="m235.137 112.568-3.272 12.207 1.07 3.739 2.795-2.703 3.27-12.207-.482-.131zm.707 1.223 1.931.518-.26.968-1.931-.52zm-.518 1.934 1.932.517-2.422 9.043-1.397 1.352-.535-1.87zm-11.004 3.726a6 6 0 0 0-.644.057.5.5 0 0 0 .115.994l.021-.002c.42-.058.71-.056.872-.03.16.027.164.058.152.042-.012-.017.006-.01-.006.092a2.3 2.3 0 0 1-.125.45c-.134.374-.351.824-.41 1.327-.03.251-.015.54.133.806.147.268.42.468.738.575.153.05.213.04.309.045q.142.005.316.005c.231 0 .504-.003.758.004.032.001.047.006.078.008-.09.056-.146.098-.252.158-.533.301-1.218.645-1.781 1.022-.282.188-.536.383-.737.621s-.37.576-.287.95c.083.372.37.631.73.825.361.195.834.352 1.481.498 1.051.238 2.36.169 3.543.221s2.169.26 2.553.703a.5.5 0 1 0 .754-.656c-.756-.871-2.016-.992-3.262-1.047s-2.55-.01-3.367-.195c-.596-.135-1-.28-1.227-.403-.227-.122-.235-.195-.228-.162s-.019.023.076-.09a2.8 2.8 0 0 1 .527-.433c.482-.322 1.152-.663 1.717-.982a6 6 0 0 0 .752-.479c.214-.166.466-.33.477-.752.006-.246-.165-.47-.305-.564a1.1 1.1 0 0 0-.397-.16 4.2 4.2 0 0 0-.818-.083c-.282-.008-.562-.004-.783-.004-.11 0-.206 0-.272-.003l-.064-.008c.012.004.013.007.027.011-.05-.016-.047-.015-.027-.011-.114-.043-.142-.077-.154-.098-.013-.023-.03-.08-.016-.205.03-.25.206-.675.36-1.105a3 3 0 0 0 .175-.678c.028-.242.006-.535-.176-.787-.181-.252-.478-.39-.798-.444a3 3 0 0 0-.528-.033" class="ColorScheme-Text" style="fill:currentColor;fill-opacity:1;stroke:none" transform="translate(-22)"/>
<path id="rect4570" d="M198 110h22v22h-22z" style="fill:none;fill-opacity:1;stroke:none;stroke-linecap:round;stroke-linejoin:miter"/>
<path id="rect4576" d="M198 110h22v22h-22z" style="fill:none;fill-opacity:1;stroke:none;stroke-linecap:round;stroke-linejoin:miter"/>
</g>
</svg>
